X: 2535
T: Ballygow, The
R: polka
M: 2/4
K: Dmajor
|:DF/A/ df|ed Bd|AB/A/ FA|BA FE|
DF/A/ df|ed Bd|AF EF|D2 D2:|
|:fA df|e/f/e/d/ Bd|fA df|e2 e>g|
fA df|e/f/e/d/ Bd|AF EF|D2 D2:|

